svgs/sharp-regular/face-viewfinder.svg

<svg xmlns="http://www.w3.org/2000/svg" viewBox="0 0 512 512"><!--! Font Awesome Pro 6.4.2 by @fontawesome - https://fontawesome.com License - https://fontawesome.com/license (Commercial License) Copyright 2023 Fonticons, Inc. --><path d="M0 0V24 136v24H48V136 48h88 24V0H136 24 0zM352 0V48h24 88v88 24h48V136 24 0H488 376 352zM48 352H0v24V488v24H24 136h24V464H136 48V376 352zm464 0H464v24 88H376 352v48h24H488h24V488 376 352zM240 216a24 24 0 1 0 -48 0 24 24 0 1 0 48 0zm56 24a24 24 0 1 0 0-48 24 24 0 1 0 0 48zm-40-96a112 112 0 1 1 0 224 112 112 0 1 1 0-224zm0 272a160 160 0 1 0 0-320 160 160 0 1 0 0 320zm0-112c-21.6 0-39.8-14.2-45.9-33.8l-30.6 9.4C189.6 312.2 220 336 256 336s66.4-23.8 76.5-56.4l-30.6-9.4c-6 19.6-24.3 33.8-45.9 33.8z"/></svg>

<svg xmlns="http://www.w3.org/2000/svg" viewBox="0 0 512 512"><!--! Font Awesome Pro 6.6.0 by @fontawesome - https://fontawesome.com License - https://fontawesome.com/license (Commercial License) Copyright 2024 Fonticons, Inc. --><path d="M0 0L0 24 0 136l0 24 48 0 0-24 0-88 88 0 24 0 0-48L136 0 24 0 0 0zM352 0l0 48 24 0 88 0 0 88 0 24 48 0 0-24 0-112 0-24L488 0 376 0 352 0zM48 352L0 352l0 24L0 488l0 24 24 0 112 0 24 0 0-48-24 0-88 0 0-88 0-24zm464 0l-48 0 0 24 0 88-88 0-24 0 0 48 24 0 112 0 24 0 0-24 0-112 0-24zM240 216a24 24 0 1 0 -48 0 24 24 0 1 0 48 0zm56 24a24 24 0 1 0 0-48 24 24 0 1 0 0 48zm-40-96a112 112 0 1 1 0 224 112 112 0 1 1 0-224zm0 272a160 160 0 1 0 0-320 160 160 0 1 0 0 320zm0-112c-21.6 0-39.8-14.2-45.9-33.8l-30.6 9.4C189.6 312.2 220 336 256 336s66.4-23.8 76.5-56.4l-30.6-9.4c-6 19.6-24.3 33.8-45.9 33.8z"/></svg>
